!!!!SEGMENT: pl-kk--kk-i-2--015_anonim--magnificat-primi-toni.krn
!!!cenid: 16xx:1628
!!!COM: Anonim
!!!COM-rismid: pe30004985
!!!CDT:
!!!CNT:
!!!OTL: [Magnificat] Primi toni
!!!PDT:
!!!AGN: Sacred
!!!SMS-siglum: PL-Kk
!!!SMS-shelfmark: Kk.I.2
!!!SMS-shelfwork: 015 W
!!!NIFC-rismid: 300258031
!!!URL-scan: http://repozytorium.nifc.pl/skany/pl-kk-nut--i-2
!!!ONB-nifc: skany: C: 0037-0038; A: 0138-0140; T: 0241-0243; B: 0340-0342;
!!!key:
**kern	**text	**kern	**text	**kern	**text	**kern	**text
*part4	*part4	*part3	*part3	*part2	*part2	*part1	*part1
*staff4	*staff4	*staff3	*staff3	*staff2	*staff2	*staff1	*staff1
*I"BASVS	*	*I"TENOR	*	*I"ALTVS	*	*I"DISCANTVS	*
*I'B	*	*I'T	*	*I'A	*	*I'S	*
*ICvox	*	*ICvox	*	*ICvox	*	*ICvox	*
*Ibass	*	*Itenor	*	*Ialto	*	*Isoprn	*
*clefF4	*	*clefC4	*	*clefC3	*	*clefC1	*
*k[]	*	*k[]	*	*k[]	*	*k[]	*
*d:	*	*d:	*	*d:	*	*d:	*
*M2/1	*	*M2/1	*	*M2/1	*	*M2/1	*
*met(c|)	*	*met(c|)	*	*met(c|)	*	*met(c|)	*
=1	=1	=1	=1	=1	=1	=1	=1
!	!	!	!	!	!	!LO:TX:t=P:problem=w utworze często pojawiają się miejsca w których nie ma tekstu a pasowałoby powtórzenie, nie jest to zaznaczone	!
!!LO:TX:t=P:problem: 2,4\right or middle	!	!	!	!	!	!	!
1C	Et	1r	.	0r	.	0r	.
*lig	*	*	*	*	*	*	*
1D	e-	1F	Et	.	.	.	.
=2	=2	=2	=2	=2	=2	=2	=2
1E	.	1G	e-	0r	.	0r	.
*Xlig	*	*	*	*	*	*	*
*	*	*	*	*	*	*	*
2.F/	-xul-	1A	.	.	.	.	.
8E/	-ta-	.	.	.	.	.	.
8D/	vit	.	.	.	.	.	.
=3	=3	=3	=3	=3	=3	=3	=3
2C/	.	2A/	-xul-	0r	.	0r	.
2.D/	.	2.B/	-ta-	.	.	.	.
4C/	.	4A/	-vit	.	.	.	.
4BB/	.	2.A/	.	.	.	.	.
4AA/	.	.	.	.	.	.	.
=4	=4	=4	=4	=4	=4	=4	=4
1BB	.	.	.	1r	.	0r	.
.	.	8G/	.	.	.	.	.
.	.	8F/	.	.	.	.	.
.	.	2G/	.	.	.	.	.
1AA	.	1.A	.	1c	Et	.	.
=5	=5	=5	=5	=5	=5	=5	=5
*lig	*	*	*	*lig	*	*	*
1D	.	.	.	1d	e-	1f	Et
.	.	4G/	.	.	.	.	.
.	.	4F/	.	.	.	.	.
*	*	*	*	*	*	*lig	*
1C	.	0c	.	1e	.	1g	e-
*Xlig	*	*	*	*Xlig	*	*	*
=6	=6	=6	=6	=6	=6	=6	=6
*	*	*	*	*2\right	*	*	*
1F	.	.	.	2.f\	-xul-	1a	.
.	.	.	.	8e/	-ta-	.	.
.	.	.	.	8d/	.	.	.
*	*	*	*	*	*	*Xlig	*
1r	.	1r	.	2c/	vit	2a/	-xul-
*	*	*	*	*	*	*2\right	*
.	.	.	.	2.d/	.	2.b\	-ta-
=7	=7	=7	=7	=7	=7	=7	=7
1r	.	1r	.	.	.	.	.
.	.	.	.	4c/	.	4a/	-vit
.	.	.	.	4B/	.	1a	.
.	.	.	.	4A/	.	.	.
1G	Spi-	2r	.	1B	.	.	.
.	.	1d	Spi-	.	.	2g/	.
=8	=8	=8	=8	=8	=8	=8	=8
2D/	-ri-	.	.	1A	.	1.a	.
*2\right	*	*	*	*	*	*	*
2.F\	-tus	2A/	-ri-	.	.	.	.
*	*	*2\right	*	*	*	*	*
.	.	2.c\	-tus	1r	.	.	.
4E\	.	.	.	.	.	.	.
2.C/	.	.	.	.	.	2g/	.
.	.	4B/	.	.	.	.	.
=9	=9	=9	=9	=9	=9	=9	=9
.	.	4G/	.	0r	.	1g	.
4D/	.	4F/	.	.	.	.	.
4E/	.	4G/	.	.	.	.	.
!LO:SIC:v:t=custos G	!	!	!	!	!	!	!
4F/	.	4A/	.	.	.	.	.
!LO:LB:g=original	!	!	!	!	!	!	!
4G\	.	4B/	.	.	.	1r	.
4A\	.	4c/	.	.	.	.	.
4B\	.	4d\	.	.	.	.	.
!	!	!LO:SIC:v:t=custos c	!	!	!	!	!
4G\	.	4B/	.	.	.	.	.
!	!	!LO:LB:g=original	!	!	!	!	!
=10	=10	=10	=10	=10	=10	=10	=10
2A\	-me	4c\	me-	0r	.	0r	.
.	.	4B\	.	.	.	.	.
1G	.	4A/	-us	.	.	.	.
.	.	4G/	.	.	.	.	.
.	.	1A	.	.	.	.	.
2F#X\	.	.	.	.	.	.	.
=11	=11	=11	=11	=11	=11	=11	=11
1G	-us	1G	.	1g	Spi-	2r	.
.	.	.	.	.	.	1dd	Spi-
1r	.	1r	.	2d\	-ri-	.	.
.	.	.	.	1f	-tus	2a/	-ri-
=12	=12	=12	=12	=12	=12	=12	=12
0r	.	0r	.	.	.	1cc	-tus
.	.	.	.	2e\	.	.	.
.	.	.	.	2d\	me-	2b\	.
.	.	.	.	1f	-us	2a\	me-
=13	=13	=13	=13	=13	=13	=13	=13
0r	.	0r	.	.	.	1cc	-us
.	.	.	.	2e\	.	.	.
.	.	.	.	4d\	.	2b\	.
.	.	.	.	4c\	.	.	.
.	.	.	.	4B/	.	1a	.
.	.	.	.	4A/	.	.	.
=14	=14	=14	=14	=14	=14	=14	=14
*	*ij	*	*	*	*	*	*
1G	Spi-	2r	.	1B	.	.	.
.	.	1d	Spi-	.	.	2g/	.
2D/	-ri-	.	.	2r	.	1a	.
*	*	*	*	*	*ij	*	*
1F	-tus	2A/	-(ri-	1A	Spi-	.	.
=15	=15	=15	=15	=15	=15	=15	=15
.	.	1c	-tu)s	.	.	0r	.
!	!	!	!	!LO:SIC:v:t=custos F	!	!	!
2E/	.	.	.	2G/	-ri-	.	.
!	!	!	!	!LO:LB:g=original	!	!	!
2D/	.	2B/	.	2F/	-tus	.	.
1F\	.	2A/	.	1A	me-	.	.
=16	=16	=16	=16	=16	=16	=16	=16
.	.	1c	.	.	.	1r	.
2E/	.	.	.	2G/	.	.	.
4D/	.	2B/	me-	2F/	.	2r	.
4C/	.	.	.	.	.	.	.
4BB/	.	1A	-us	1E	.	2cc\	Spi-
4AA/	.	.	.	.	.	.	.
=17	=17	=17	=17	=17	=17	=17	=17
1BB	.	.	.	.	.	2.dd\	-ri-
.	.	2G/	.	2D/	.	.	.
.	.	.	.	.	.	8cc\	.
!	!	!	!	!	!	!LO:SIC:v:t=custos cc	!
.	.	.	.	.	.	8b\	.
!	!	!	!	!	!	!LO:LB:g=original	!
*	*	*	*	*lig	*	*	*
2AA/	.	2.A/	.	1E	-us	4cc\	-tus
.	.	.	.	.	.	4a\	.
*	*	*	*	*	*Xij	*	*
2.AA/	.	.	.	.	.	1cc	.
.	.	4B/	.	.	.	.	.
=18	=18	=18	=18	=18	=18	=18	=18
.	.	4c\	.	1e	.	.	.
4BB/	.	4d\	.	.	.	.	.
4C/	.	4e\	.	.	.	4b\	.
4D/	.	8d\	.	.	.	4a\	.
.	.	8c\	.	.	.	.	.
*	*	*	*	*Xlig	*	*	*
2E\	.	2B/	.	2r	.	2g\	.
2C/	.	2e\	.	2g\	Spi-	2cc\	.
=19	=19	=19	=19	=19	=19	=19	=19
2D/	.	4d\	.	2f\	-ri-	4b\	.
.	.	4c\	.	.	.	4a\	.
2F\	.	4B\	.	2d\	-tus	1a	.
.	.	4A\	.	.	.	.	.
!LO:SIC:v:t=custos AA	!	!	!	!	!	!	!
1E	me-	1B	.	1e	me-	.	.
!LO:LB:g=original	!	!	!	!	!	!	!
.	.	.	.	.	.	2g/	me-
=20	=20	=20	=20	=20	=20	=20	=20
*lig	*	*	*	*	*	*	*
!	!	!LO:SIC:v:t=custos F	!	!	!	!	!
1AA	-us	1A	.	1c	-us	1.a	-us
!	!	!LO:LB:g=original	!	!	!	!	!
1D	.	2F/	.	2r	.	.	.
.	.	2G/	.	1d	Spi-	4g/	.
.	.	.	.	.	.	4f/	.
*Xlig	*Xij	*	*	*	*	*	*
=21	=21	=21	=21	=21	=21	=21	=21
1r	.	1A	.	.	.	1e	.
.	.	.	.	2c/	-ri-	.	.
2r	.	2D/	.	2f\	-tus	1d	.
1D	Spi-	2.A/	.	2d\	.	.	.
=22	=22	=22	=22	=22	=22	=22	=22
.	.	.	.	1e	me-	1r	.
.	.	4B/	.	.	.	.	.
2C/	-ri-	2.c\	.	.	.	.	.
2F\	-tus	.	.	1A	-us	2r	.
.	.	4A/	.	.	.	.	.
*	*	*	*	*	*	*	*ij
2D\	me-	2d\	.	.	.	1a	Spi-
=23	=23	=23	=23	=23	=23	=23	=23
*lig	*	*	*	*	*	*	*
1E	-us	1B	.	0e	.	.	.
.	.	.	.	.	.	2g/	-ri-
1AA	.	2r	.	.	.	2cc\	-tus
.	.	1A	Spi-	.	.	2a\	me-
*Xlig	*	*	*	*	*	*	*
=24	=24	=24	=24	=24	=24	=24	=24
*	*ij	*	*	*	*ij	*	*
1E	Spi-	.	.	2r	.	1b	-us
*	*	*	*	*	*	*	*Xij
.	.	2G/	-(ri-	1e	Spi-	.	.
2C/	.	2c\	-tu)s	.	.	2r	.
2D/	-ri-	2A/	.	2d\	-ri-	1a	Spi-
=25	=25	=25	=25	=25	=25	=25	=25
2GG/	-tus	1B	me-	1g	-tus	.	.
1G	me-	.	.	.	.	2g/	ri-
.	.	1A	-us	2e\	me-	2cc\	-tus
2F\	.	.	.	1f	-us	2a\	me-
*	*	*	*ij	*	*Xij	*	*
=26	=26	=26	=26	=26	=26	=26	=26
2B-X\	.	2r	.	.	.	1b-X	.
2G\	.	1d	Spi-	2g\	.	.	.
1A	-us	.	.	1e	.	0.a	-us
.	.	2c\	-(ri-	.	.	.	.
=27	=27	=27	=27	=27	=27	=27	=27
2r	.	2f\	-tu)s	2.d/	.	.	.
*	*Xij	*	*	*	*	*	*
1D	Sp(i-	2d\	me-	.	.	.	.
.	.	.	.	8c/	.	.	.
!	!	!	!	!LO:SIC:v:t=custos A	!	!	!
.	.	.	.	8B/	.	.	.
!	!	!	!	!LO:LB:g=original	!	!	!
.	.	2.e\	-us	4A/	.	.	.
*	*	*	*Xij	*	*	*	*
.	.	.	.	4B/	.	.	.
2C/	-ri-	.	.	2c/	.	.	.
.	.	4d\	.	.	.	.	.
=28	=28	=28	=28	=28	=28	=28	=28
2F\	-tu)s	2c\	.	2A/	.	2r	.
*	*	*	*	*	*	*	*ij
2D/	me-	2d\	.	2f\	.	2.a/	Spi-
1E	.	1B	.	1e	.	.	.
.	.	.	.	.	.	8g/	-ri-
.	.	.	.	.	.	8f/	-tus
!	!	!	!	!	!	!LO:SIC:v:t=custos a	!
.	.	.	.	.	.	2g/	me-
!	!	!	!	!	!	!LO:LB:g=original	!
=29	=29	=29	=29	=29	=29	=29	=29
1F	.	0A	.	1c	.	1a	-us
*	*	*	*	*	*	*	*Xij
1D	-us	.	.	1.d	In	1r	.
=30	=30	=30	=30	=30	=30	=30	=30
1r	.	0r	.	.	.	1.a	in
.	.	.	.	2d\	de-	.	.
1.D	In	.	.	0d	-o	.	.
.	.	.	.	.	.	2a\	de-
=31	=31	=31	=31	=31	=31	=31	=31
.	.	1.A	In	.	.	1a	-o
2D/	de-	.	.	.	.	.	.
0D	-o	.	.	2r	.	2r	.
!	!	!LO:SIC:v:t=custos A	!	!	!	!	!
.	.	2A/	de-	2f\	Sa-	2a\	Sa-
!	!	!LO:LB:g=original	!	!	!	!	!
=32	=32	=32	=32	=32	=32	=32	=32
.	.	2A/	-o	2.f\	-lu-	2.a\	-lu-
.	.	2d\	ſa-	.	.	.	.
.	.	.	.	4e\	-ta-	4g\	-ta-
!LO:TX:a:t=3.	!	!	!	!	!	!	!
1r	.	2d\	-lu-	2d\	-ri	2f/	-ri
.	.	2c\	-ta-	2.e\	me	2.g/	me
=33	=33	=33	=33	=33	=33	=33	=33
0r	.	1B	-ri	.	.	.	.
.	.	.	.	4d\	me-	4f/	me-
.	.	.	.	1d	.	4e/	.
.	.	.	.	.	.	4d/	.
!	!	!	!	!	!	!LO:TX:a:t=66	!
.	.	1A	.	.	.	1e	.
.	.	.	.	2c/	.	.	.
=34	=34	=34	=34	=34	=34	=34	=34
2r	.	2D/	.	1d	-o	1d	-o
!LO:SIC:v:t=custos D	!	!	!	!	!	!	!
!LO:LB:g=original	!	!	!	!	!	!	!
2D/	Sa-	2A/	.	.	.	.	.
2.F\	-lu-	2.A/	.	1r	.	1r	.
4E\	-ta-	4G/	.	.	.	.	.
=35	=35	=35	=35	=35	=35	=35	=35
2D/	-rj	2F/	.	0r	.	0r	.
2.E\	.	2.G/	.	.	.	.	.
4D/	.	4F/	me-	.	.	.	.
1D	me-	4E/	.	.	.	.	.
.	.	4D/	.	.	.	.	.
=36	=36	=36	=36	=36	=36	=36	=36
.	.	1E	.	1r	.	1r	.
2C#X/	-o	.	.	.	.	.	.
1D	.	1D	-o	2r	.	2r	.
.	.	.	.	2d\	ſa-	2a\	ſa-
=37	=37	=37	=37	=37	=37	=37	=37
0r	.	0r	.	2.f\	-lu-	2.a\	-lu-
.	.	.	.	4e\	-ta-	4g/	-ta-
.	.	.	.	2d\	-ri	2f/	-ri
.	.	.	.	2.e\	.	2.g/	.
=38	=38	=38	=38	=38	=38	=38	=38
1r	.	1r	.	.	.	.	.
.	.	.	.	4d\	.	4f/	.
.	.	.	.	1d	.	4e/	.
.	.	.	.	.	.	4d/	.
*	*ij	*	*ij	*	*	*	*
1AA	Sa-	2r	.	.	.	1e	.
.	.	2A/	In	2c/	.	.	.
=39	=39	=39	=39	=39	=39	=39	=39
1.D	-lu-	2.A/	De-	2.d/	me-	2d/	.
.	.	.	.	.	.	2.f/	me-
.	.	4G/	-o	8c/	-o	.	.
.	.	.	.	8B/	.	.	.
.	.	2F/	ſa-	2A/	.	.	.
.	.	.	.	.	.	4e/	.
2GG/	-ta-	2.G/	-lu-	2B/	.	2.e/	.
=40	=40	=40	=40	=40	=40	=40	=40
1BB-X	-ri	.	.	1G	.	.	.
.	.	4F/	-ta-	.	.	4d/	.
.	.	4E/	.	.	.	1d	.
.	.	4D/	-ri	.	.	.	.
1AA	me-	1E	me-	0.A	.	.	.
.	.	.	.	.	.	2c/	.
=41	=41	=41	=41	=41	=41	=41	=41
!	!	!LO:SIC:v:t=custos F	!	!LO:SIC:v:t=custos c	!	!LO:SIC:v:t=custos f	!
!	!	!	!	!	!LO:LB:g=original	!	!
0D	-o	0D	-o	.	.	0d	-o
*	*Xij	*	*Xij	*	*	*	*
!	!	!	!	!	!	!LO:LB:g=original	!
!	!	!LO:LB:g=original	!	!	!	!	!
==42	==42	==42	==42	==42	==42	==42	==42
*M2/1	*	*M2/1	*	*M2/1	*	*M2/1	*
*met(c|)	*	*met(c|)	*	*met(c|)	*	*met(c|)	*
0F	Qu-	0F	Qu-	0c	Qu-	00f	Qu-
=43	=43	=43	=43	=43	=43	=43	=43
*lig	*	*lig	*	*	*	*	*
*	*	*col	*	*	*	*	*
0D	-ia	0A	-ia.	0d	-ia	.	.
=44	=44	=44	=44	=44	=44	=44	=44
*	*	*	*	*	*	*lig	*
00C	.	1.c	.	00e	.	00g	-ia
*Xlig	*	*Xlig	*	*	*	*	*
*	*	*Xcol	*	*	*	*	*
.	.	4B/	.	.	.	.	.
.	.	4A/	.	.	.	.	.
=45	=45	=45	=45	=45	=45	=45	=45
.	.	1G	fe-	.	.	.	.
.	.	1.c	-cit	.	.	.	.
=46	=46	=46	=46	=46	=46	=46	=46
1.F	fę-	.	.	2.f\	fę-	0a	.
.	.	2B/	.	.	.	.	.
.	.	.	.	4e\	-cit	.	.
.	.	2A/	.	2d\	.	.	.
2E\	.	2G/	.	2c\	.	.	.
*	*	*	*	*	*	*Xlig	*
=47	=47	=47	=47	=47	=47	=47	=47
2D/	.	2F/	.	2d\	.	00a	fę-
2C/	.	2E/	.	2.e\	.	.	.
1D	.	2.F/	me-	.	.	.	.
.	.	.	.	4d\	.	.	.
.	.	.	.	1d	.	.	.
.	.	8E/	.	.	.	.	.
.	.	8D/	.	.	.	.	.
=48	=48	=48	=48	=48	=48	=48	=48
1AA	.	1E	.	.	.	.	.
.	.	.	.	2c/	.	.	.
0D	-cit	0.D	o	1d	.	.	.
=49	=49	=49	=49	=49	=49	=49	=49
.	.	.	.	2r	.	00a	-cit
.	.	.	.	2d\	mi-	.	.
2r	.	.	.	2.f\	-hi	.	.
!LO:SIC:v:t=custos F	!	!	!	!	!	!	!
2D/	mi-	.	.	.	.	.	.
!LO:LB:g=original	!	!	!	!	!	!	!
.	.	.	.	4e\	ma-	.	.
=50	=50	=50	=50	=50	=50	=50	=50
2.F\	-hi	0r	.	2d/	-gna	.	.
.	.	.	.	2c/	qui	.	.
4E\	.	.	.	.	.	.	.
2D/	ma-	.	.	2d/	po-	.	.
2C/	-gna	.	.	2.e\	.	.	.
=51	=51	=51	=51	=51	=51	=51	=51
2F\	qui	0r	.	.	.	0r	.
.	.	.	.	4d\	.	.	.
2G\	.	.	.	1d	.	.	.
1E	po-	.	.	.	.	.	.
.	.	.	.	2c/	-tens	.	.
=52	=52	=52	=52	=52	=52	=52	=52
2.D/	-tens	1r	.	1d	eſt	2r	.
.	.	.	.	.	.	2a\	mi-
8C/	.	.	.	.	.	.	.
8BB/	.	.	.	.	.	.	.
2AA/	eſt	2r	.	1r	.	2.cc\	-hi
1F	.	2A/	mi-	.	.	.	.
.	.	.	.	.	.	4b\	mag-
=53	=53	=53	=53	=53	=53	=53	=53
.	.	2.c\	-hi	1r	.	2a\	.
2E\	.	.	.	.	.	2g\	-na
.	.	4B/	mag-	.	.	.	.
2F\	.	2A/	-na	2r	.	2a\	qui
*	*	*	*	*	*ij	*	*
2G\	.	2G/	qui	2g\	qu-	2.b	po-
=54	=54	=54	=54	=54	=54	=54	=54
2A\	.	2c\	.	2e\	-i	.	.
.	.	.	.	.	.	4a\	.
2D/	.	2d\	po-	2f\	po-	1a	-tens
1E	.	1B	-te(n)s	1e	-tens	.	.
.	.	.	.	.	.	2g/	.
=55	=55	=55	=55	=55	=55	=55	=55
1F	.	00A	eſt	1c	eſt	00a	eſt
*	*	*	*	*	*Xij	*	*
!LO:TX:a:t=24	!	!	!	!	!	!	!
1D	.	.	.	2r	.	.	.
!	!	!	!	!LO:SIC:v:t=custos f	!	!	!
.	.	.	.	2d\	mi-	.	.
!	!	!	!	!LO:LB:g=original	!	!	!
=56	=56	=56	=56	=56	=56	=56	=56
2r	.	.	.	2.f\	-hi	.	.
2D/	mi-	.	.	.	.	.	.
.	.	.	.	4e\	.	.	.
2.F\	-hi	.	.	2d\	ma-	.	.
.	.	.	.	2c\	-gna	.	.
4E\	.	.	.	.	.	.	.
=57	=57	=57	=57	=57	=57	=57	=57
2D/	m-a	0r	.	2d\	.	0r	.
2C/	-gna	.	.	2.e\	qui	.	.
2F\	qui	.	.	.	.	.	.
.	.	.	.	4d\	.	.	.
2G\	po-	.	.	1d	po-	.	.
=58	=58	=58	=58	=58	=58	=58	=58
!LO:SIC:v:t=custos D	!	!	!	!	!	!	!
1E	-tens	0r	.	.	.	1r	.
!LO:LB:g=original	!	!	!	!	!	!	!
.	.	.	.	2c/	-tens	.	.
*	*	*	*	*lig	*	*	*ij
2.D/	eſt	.	.	1d	eſt	2r	.
.	.	.	.	.	.	2a\	Qu-
8C/	.	.	.	.	.	.	.
8BB/	.	.	.	.	.	.	.
=59	=59	=59	=59	=59	=59	=59	=59
*	*	*	*ij	*	*	*	*
0AA	.	2r	.	1e	.	2.cc\	-ia
.	.	2A/	mi-	.	.	.	.
.	.	.	.	.	.	4b\	fę-
!	!	!LO:SIC:v:t=custos c	!	!	!	!	!
*	*ij	*	*	*Xlig	*ij	*	*
.	.	2.c\	-hi	2r	.	2a\	-cit
!	!	!LO:LB:g=original	!	!	!	!	!
!	!	!	!	!LO:TX:t=P:problem=brak znaku powtórzenia tekstu	!	!	!
.	.	.	.	2e\	mi-	2g\	mi-
.	.	4B\	ma-	.	.	.	.
=60	=60	=60	=60	=60	=60	=60	=60
2r	.	2A/	-gna	2c/	-hi	2a\	-hi
2G\	mi-	2G/	qui	2d/	ma-	2b\	mag-
2F\	-hi	2A/	po-	2f\	-gna	2cc\	-na
2G\	mag-	2B/	.	4d\	qui	2.b\	qui
.	.	.	.	2e\	po-	.	.
=61	=61	=61	=61	=61	=61	=61	=61
2A\	-na	2c\	.	.	.	.	.
.	.	.	.	4c/	.	4a\	po-
2D\	qui	2d\	.	2f\	-tens	1a	-tens
1E	po-	1B	.	1e	.	.	.
!	!	!	!	!	!	!LO:SIC:v:t=custos a	!
.	.	.	.	.	.	2g/	eſt
*	*	*	*	*	*	*	*Xij
!	!	!	!	!	!	!LO:LB:g=original	!
=62	=62	=62	=62	=62	=62	=62	=62
0AA	-tens	0.A	-te(n)s	1c	eſt	0a	.
.	.	.	.	1r	.	.	.
*	*	*	*Xij	*	*Xij	*	*
=63	=63	=63	=63	=63	=63	=63	=63
1D	eſt	.	.	1d	et	2r	.
.	.	.	.	.	.	1a	et
1r	.	1r	.	2d/	ſan-	.	.
.	.	.	.	2.c/	-ctu(m)	2a\	ſan-
*	*Xij	*	*	*	*	*	*
=64	=64	=64	=64	=64	=64	=64	=64
0r	.	0r	.	.	.	2.g/	-ctu(m)
.	.	.	.	4B/	.	.	.
.	.	.	.	2.G/	.	.	.
.	.	.	.	.	.	4f/	.
.	.	.	.	.	.	4d/	.
.	.	.	.	4A/	.	4c/	.
.	.	.	.	4B/	.	4d/	.
!	!	!	!	!LO:SIC:v:t=custos d	!	!	!
.	.	.	.	4c/	.	4e/	.
!	!	!	!	!LO:LB:g=original	!	!	!
=65	=65	=65	=65	=65	=65	=65	=65
0r	.	0r	.	2.d/	no-	4f/	.
.	.	.	.	.	.	4g/	.
.	.	.	.	.	.	2.a/	.
.	.	.	.	4c/	-men	.	.
.	.	.	.	4A/	.	.	.
.	.	.	.	4B/	.	8g/	no-
.	.	.	.	.	.	8f/	.
.	.	.	.	4c/	.	4e/	-men
.	.	.	.	4d/	.	4f/	.
=66	=66	=66	=66	=66	=66	=66	=66
0r	.	0r	.	2e\	.	4g/	.
.	.	.	.	.	.	4f/	e-
.	.	.	.	1d	e-	4e/	.
.	.	.	.	.	.	4d/	.
.	.	.	.	.	.	1e	.
.	.	.	.	2c/	-ius	.	.
=67	=67	=67	=67	=67	=67	=67	=67
1.D	et	1r	.	2.d/	.	1d	-ius
.	.	.	.	4e/	.	.	.
.	.	1A	mi-	2f\	.	1r	.
2C/	ſan-	.	.	2e\	.	.	.
=68	=68	=68	=68	=68	=68	=68	=68
2D/	.	2A/	-hi	2f\	.	0r	.
2E/	-ctu(m)	2G/	ma-	2g\	.	.	.
2.F/	no-	2A/	-gna	2c/	.	.	.
.	.	2B/	.	2A/	.	.	.
4E/	.	.	.	.	.	.	.
=69	=69	=69	=69	=69	=69	=69	=69
2.C/	-men	2.c\	qui	1e	.	0r	.
4D/	.	8B/	po-	.	.	.	.
.	.	8A/	.	.	.	.	.
4E/	.	4G/	-tens	1r	.	.	.
4F/	.	4F/	eſt	.	.	.	.
2.G\	.	4G/	.	.	.	.	.
.	.	4A/	.	.	.	.	.
=70	=70	=70	=70	=70	=70	=70	=70
.	.	4B/	.	0r	.	0r	.
4F\	.	4c/	.	.	.	.	.
4D/	.	4d\	.	.	.	.	.
4E/	.	4c\	.	.	.	.	.
4F\	.	4A/	.	.	.	.	.
4G\	.	4B/	.	.	.	.	.
4A\	.	4c\	.	.	.	.	.
!LO:SIC:v:t=custos G	!	!LO:SIC:v:t=custos e	!	!	!	!	!
4F\	.	4d\	.	.	.	.	.
!LO:LB:g=original	!	!	!	!	!	!	!
!	!	!LO:LB:g=original	!	!	!	!	!
=71	=71	=71	=71	=71	=71	=71	=71
4G\	e-	2e\	.	1r	.	0r	.
4F\	.	.	.	.	.	.	.
4E/	.	1d	.	.	.	.	.
4D/	.	.	.	.	.	.	.
1E	.	.	.	2r	.	.	.
.	.	2c\	.	2g\	et	.	.
=72	=72	=72	=72	=72	=72	=72	=72
1D	-ius	1d	.	2f\	ſan-	2r	.
.	.	.	.	2d\	-ctu(m)	2dd\	et
1r	.	1r	.	2f\	.	2cc\	.
.	.	.	.	2.f\	no-	2a\	.
=73	=73	=73	=73	=73	=73	=73	=73
1r	.	0r	.	.	.	2.cc\	ſan-
.	.	.	.	4e\	.	.	.
.	.	.	.	2c/	-men	.	.
.	.	.	.	.	.	4b\	.
2r	.	.	.	2e-X/	.	2g/	-ctu(m)
2G\	et	.	.	4d/	.	2b-X\	no-
.	.	.	.	4B/	.	.	.
=74	=74	=74	=74	=74	=74	=74	=74
2F\	ſan-	2r	.	2f\	e-	2a\	.
!	!	!	!	!	!	!LO:SIC:v:t=custos a	!
2D/	.	2d\	et	2.f\	-ius	2f/	-men
!	!	!	!	!	!	!LO:LB:g=original	!
2.F\	-ctu(m)	2c\	ſan-	.	.	2.a/	e-
.	.	.	.	4e\	.	.	.
.	.	2A\	.	2c/	.	.	.
4E\	no-	.	.	.	.	4g/	.
=75	=75	=75	=75	=75	=75	=75	=75
!	!	!	!	!LO:SIC:v:t=custos G	!	!	!
2C/	-me(n)	2c\	-ctu(m)	2r	.	2e/	-ius
!	!	!	!	!LO:LB:g=original	!	!	!
2E-X/	e-	4B/	no-	2G/	no-	2g/	.
.	.	4G/	-m(en)	.	.	.	.
2D/	.	2A/	.	2d\	.	2f/	.
2BB/	.	2B/	.	2.d\	-men	2d/	.
=76	=76	=76	=76	=76	=76	=76	=76
2.D/	.	2A/	.	.	.	2.f/	.
.	.	.	.	4c/	e-	.	.
.	.	4F/	.	4A/	.	.	.
4C/	.	4G/	.	4B/	.	4e/	.
4AA/	.	2A/	.	1c	.	4c/	.
4BB/	.	.	.	.	.	4d/	.
2C/	.	2.G/	e-	.	.	1e	.
=77	=77	=77	=77	=77	=77	=77	=77
2GG/	.	.	.	2B/	.	.	.
.	.	4F/	-ius	.	.	.	.
2BB/	.	4E/	.	2G/	.	1d	.
.	.	4D/	.	.	.	.	.
1AA	-ius	1E	.	1A	.	.	.
.	.	.	.	.	.	2c/	.
=78	=78	=78	=78	=78	=78	=78	=78
0D	.	0D	.	0A	-ius	0d	.
==79	==79	==79	==79	==79	==79	==79	==79
*M2/1	*	*M2/1	*	*M2/1	*	*M2/1	*
*met(c|)	*	*met(c|)	*	*met(c|)	*	*met(c|)	*
*	*	*lig	*	*	*	*	*
0r	.	0F	fę-	0r	.	0r	.
=80	=80	=80	=80	=80	=80	=80	=80
0r	.	0G	.	0r	.	0r	.
*	*	*Xlig	*	*	*	*	*
=81	=81	=81	=81	=81	=81	=81	=81
0r	.	2.A/	-cit	0c	fę-	0r	.
.	.	4G/	.	.	.	.	.
.	.	4F/	.	.	.	.	.
!	!	!LO:SIC:v:t=custos F	!	!	!	!	!
.	.	4E/	.	.	.	.	.
!	!	!LO:LB:g=original	!	!	!	!	!
.	.	2.F/	.	.	.	.	.
=82	=82	=82	=82	=82	=82	=82	=82
0r	.	.	.	0d	-cit	0f	Fę-
.	.	4E/	.	.	.	.	.
.	.	4D/	.	.	.	.	.
.	.	4C/	.	.	.	.	.
.	.	1D	.	.	.	.	.
=83	=83	=83	=83	=83	=83	=83	=83
*	*	*	*	*	*	*lig	*
2r	.	2C/	.	1e	.	00.g	-cit
2.C/	Fę-	2c\	.	.	.	.	.
.	.	2r	.	2r	.	.	.
4D/	.	.	.	.	.	.	.
4E/	-cit	2c\	po-	2e\	po-	.	.
!LO:SIC:v:t=custos G	!	!	!	!	!	!	!
4F/	.	.	.	.	.	.	.
!LO:LB:g=original	!	!	!	!	!	!	!
=84	=84	=84	=84	=84	=84	=84	=84
2G\	.	2B\	-ten-	2d\	-ten-	.	.
2C/	.	1c	-ti-	2e\	-ti-	.	.
2r	.	.	.	1e	-a(m)	.	.
2.C/	fę-	4B\	-a(m)	.	.	.	.
.	.	4A\	.	.	.	.	.
=85	=85	=85	=85	=85	=85	=85	=85
.	.	2G/	.	2r	.	.	.
4D\	.	.	.	.	.	.	.
*	*	*	*	*	*ij	*	*
4E\	.	2c\	.	2e\	fę-	.	.
4F\	-cit	.	.	.	.	.	.
2G\	.	2B\	.	2d\	.	.	.
2C/	.	2.c\	.	2e\	-cit	.	.
=86	=86	=86	=86	=86	=86	=86	=86
2.F\	po-	.	.	2f\	po-	0a	.
.	.	4B\	.	.	.	.	.
.	.	4A/	.	2.F/	-ten-	.	.
4G\	-ten-	4G/	.	.	.	.	.
2A\	-ti-	2A/	.	.	.	.	.
.	.	.	.	4G/	-ti-	.	.
2.D/	-a(m)	2.F/	.	2A/	-a(m)	.	.
*	*	*	*	*	*Xij	*Xlig	*
=87	=87	=87	=87	=87	=87	=87	=87
.	.	.	.	2.D/	.	0a	po-
4E/	.	4G/	.	.	.	.	.
2F\	.	2A/	.	.	.	.	.
.	.	.	.	4E/	.	.	.
!	!	!	!	!LO:SIC:v:t=custos D	!	!	!
2D/	.	2D/	.	2F/	.	.	.
!	!	!	!	!LO:LB:g=original	!	!	!
2.F\	.	1A	po-	2D/	.	.	.
=88	=88	=88	=88	=88	=88	=88	=88
.	.	.	.	2.F/	po-	1a	-ten-
4G\	.	.	.	.	.	.	.
2A\	.	2.F/	-ten-	.	.	.	.
.	.	.	.	4G/	.	.	.
2r	.	.	.	4A/	.	1a	-ti-
.	.	4G/	.	4B/	.	.	.
2D/	po-	1A	.	4c/	.	.	.
.	.	.	.	4d/	.	.	.
=89	=89	=89	=89	=89	=89	=89	=89
2C#X/	-ten-	.	.	2e\	.	00a	-a(m)
2D/	-ti-	2F/	.	1d	ten-	.	.
!	!	!LO:SIC:v:t=custos E	!	!	!	!	!
1AA	-a(m)	1E	-ti-	.	.	.	.
.	.	.	.	2c/	-ti-	.	.
!	!	!LO:LB:g=original	!	!	!	!	!
=90	=90	=90	=90	=90	=90	=90	=90
1D	.	0D	-a(m)	0d	-am	.	.
2r	.	.	.	.	.	.	.
2D/	in	.	.	.	.	.	.
=91	=91	=91	=91	=91	=91	=91	=91
2E/	bra-	2r	.	0r	.	0r	.
2C/	-chi-	2A\	.	.	.	.	.
2D/	-o	2B\	ni	.	.	.	.
2E/	.	2G/	bra-	.	.	.	.
=92	=92	=92	=92	=92	=92	=92	=92
2.F\	ſu-	2.A/	-chi-	0r	.	0r	.
!LO:SIC:v:t=custos C	!	!	!	!	!	!	!
4E/	-o	4B/	-o	.	.	.	.
!LO:LB:g=original	!	!	!	!	!	!	!
2.C/	.	2.c\	ſu-	.	.	.	.
4D/	.	4B/	.	.	.	.	.
=93	=93	=93	=93	=93	=93	=93	=93
4E/	.	4G/	.	0r	.	0r	.
4F/	.	4A/	.	.	.	.	.
4G\	.	4B\	.	.	.	.	.
8F\	.	4c\	.	.	.	.	.
8E\	.	.	.	.	.	.	.
4D\	.	4d\	.	.	.	.	.
4E\	.	4c\	.	.	.	.	.
4F\	.	4A\	.	.	.	.	.
4G\	.	4B\	.	.	.	.	.
=94	=94	=94	=94	=94	=94	=94	=94
2A\	.	4c\	.	0r	.	0r	.
.	.	4B\	.	.	.	.	.
1G	.	4A/	.	.	.	.	.
.	.	4G/	.	.	.	.	.
.	.	1A	.	.	.	.	.
2F\	.	.	.	.	.	.	.
=95	=95	=95	=95	=95	=95	=95	=95
2.G\	.	1G	-o	2r	.	1r	.
.	.	.	.	2d\	in	.	.
8F/	.	.	.	.	.	.	.
8E/	.	.	.	.	.	.	.
4D/	.	1d	.	1f	bra-	2r	.
4E/	.	.	.	.	.	.	.
4F\	.	.	.	.	.	2a/	in
4G\	.	.	.	.	.	.	.
=96	=96	=96	=96	=96	=96	=96	=96
1A	.	0r	.	1e	-chi-	1cc	bra-
1r	.	.	.	2d\	-o	2b\	-chi-
.	.	.	.	2.f\	.	2a\	.
=97	=97	=97	=97	=97	=97	=97	=97
0r	.	0r	.	.	.	2.cc\	-o
.	.	.	.	4e\	.	.	.
.	.	.	.	4c\	.	.	.
.	.	.	.	4d\	.	4b\	.
.	.	.	.	2e\	.	4g\	ſu-
!	!	!	!	!	!	!LO:SIC:v:t=custos b	!
.	.	.	.	.	.	4a\	.
!	!	!	!	!	!	!LO:LB:g=original	!
.	.	.	.	2d\	.	2b\	.
=98	=98	=98	=98	=98	=98	=98	=98
1r	.	1r	.	4c/	ſu-	4a\	.
.	.	.	.	4B/	.	4g\	.
.	.	.	.	4A/	.	1g	.
.	.	.	.	4G/	.	.	.
*	*	*	*	*lig	*	*	*
2r	.	2r	.	1A	.	.	.
2D/	diſ-	2d\	diſ-	.	.	2f/	.
=99	=99	=99	=99	=99	=99	=99	=99
2E/	-per-	2B\	-per-	1G	.	1g	-o
2C/	-ſit	2.c\	-ſit	.	.	.	.
*	*	*	*	*Xlig	*	*	*
1.F	ſu-	.	.	1F	.	2r	.
.	.	4B\	.	.	.	.	.
.	.	2G/	ſu-	.	.	2a\	diſ-
=100	=100	=100	=100	=100	=100	=100	=100
!	!	!LO:SIC:v:t=custos d	!	!	!	!	!
.	.	2A/	.	1f	-o	2a\	-per-
!	!	!LO:LB:g=original	!	!	!	!	!
2D/	-per-	2.d\	-per-	.	.	2a\	-ſit
1G	-bos	.	.	2r	.	1.b	ſu-
.	.	4c\	.	.	.	.	.
.	.	2A/	-bos	2.d\	diſ-	.	.
=101	=101	=101	=101	=101	=101	=101	=101
2r	.	1B	.	.	.	.	.
.	.	.	.	4c\	.	.	.
*	*ij	*	*	*	*	*	*
2G\	diſ-	.	.	4d\	.	2g/	.
!	!	!	!	!LO:SIC:v:t=custos f	!	!	!
.	.	.	.	4e\	.	.	.
!	!	!	!	!LO:LB:g=original	!	!	!
2F\	-per-	1c	.	2f\	-per-	2a/	.
!!LO:SIC:v:t=custos G	!	!	!	!	!	!	!
2A\	-ſit	.	.	2e\	-ſit	2cc\	.
!LO:LB:g=original	!	!	!	!	!	!	!
=102	=102	=102	=102	=102	=102	=102	=102
!	!	!	!	!LO:TX:t=P:problem=jakby zmiana metrum	!	!	!
2G\	ſu-	2d\	.	3%2g	ſu-	2b\	.
2C/	-per-	2c\	.	.	.	1cc	-per-
.	.	.	.	3e\	-per-	.	.
1F	.	2.A/	.	3c/	.	.	.
.	.	.	.	3d/	-bos	.	.
.	.	.	.	.	.	4b\	-bos
.	.	.	.	3c/	.	.	.
.	.	4B\	.	.	.	4a\	.
=103	=103	=103	=103	=103	=103	=103	=103
!	!	!	!	!LO:TX:t=P:problem=powraca tu metrum c|	!	!	!
2.E/	.	4c\	.	2e\	ſu-	2g/	.
.	.	4B\	.	.	.	.	.
.	.	1e	.	1g	-per-	2.cc\	.
4D/	.	.	.	.	.	.	.
2C/	.	.	.	.	.	.	.
.	.	.	.	.	.	4b\	.
2D/	.	1d	.	1f	.	2.b\	.
=104	=104	=104	=104	=104	=104	=104	=104
1F	.	.	.	.	.	.	.
.	.	.	.	.	.	4a\	.
.	.	2c\	.	4e\	.	1a	.
.	.	.	.	4d\	.	.	.
1E	.	1B	.	1e	.	.	.
.	.	.	.	.	.	2g/	.
=105	=105	=105	=105	=105	=105	=105	=105
0AA	-bos	0.A	.	0e	-bos	00a	.
*	*Xij	*	*	*	*	*	*
=106	=106	=106	=106	=106	=106	=106	=106
1r	.	.	.	2r	.	.	.
.	.	.	.	2e\	men-	.	.
2A\	men-	1r	.	2.e\	-te	.	.
2.A\	.	.	.	.	.	.	.
.	.	.	.	4d\	.	.	.
=107	=107	=107	=107	=107	=107	=107	=107
.	.	0r	.	2c/	.	0r	.
4G\	-te	.	.	.	.	.	.
2F\	.	.	.	2.d/	.	.	.
2G\	cor-	.	.	.	.	.	.
.	.	.	.	4c/	.	.	.
1G\	-dis	.	.	4B/	.	.	.
.	.	.	.	4A/	cor-	.	.
=108	=108	=108	=108	=108	=108	=108	=108
.	.	0r	.	4B/	.	0r	.
.	.	.	.	4A/	.	.	.
2F\	.	.	.	1d	.	.	.
1E	ſu-	.	.	.	.	.	.
.	.	.	.	2c/	.	.	.
=109	=109	=109	=109	=109	=109	=109	=109
1D	-j	2r	.	2d/	-dis	2a/	men-
.	.	2d\	men-	2f\	.	2.a/	-te
2r	.	2.d\	-te	1f	.	.	.
.	.	.	.	.	.	4g/	.
2D/	men-	.	.	.	.	2f/	cor-
.	.	4c\	.	.	.	.	.
=110	=110	=110	=110	=110	=110	=110	=110
2G\	-te	2B\	.	2d\	.	2g/	-d(is)
!	!	!	!	!LO:SIC:v:t=custos g	!	!	!
2C/	cor-	2c\	cor-	1e	.	2.g/	ſu-
!	!	!	!	!LO:LB:g=original	!	!	!
1C	-dis	2.c\	-dis	.	.	.	.
.	.	.	.	.	.	4f/	-i
!	!	!	!	!	!	!LO:SIC:v:t=custos d	!
.	.	.	.	1g	ſu-	2e/	.
.	.	4B\	.	.	.	.	.
!	!	!	!	!	!	!LO:LB:g=original	!
=111	=111	=111	=111	=111	=111	=111	=111
*	*	*	*	*	*	*	*ij
1D	ſuj	1A	ſu-	.	.	2d/	diſ-
.	.	.	.	2f\	.	2.dd\	-per-
2r	.	1G	-j	0g	-i	.	.
.	.	.	.	.	.	4cc\	.
2E/	men-	.	.	.	.	4b\	.
.	.	.	.	.	.	4a\	.
=112	=112	=112	=112	=112	=112	=112	=112
1E	-te	2r	.	.	.	4b\	-ſit
.	.	.	.	.	.	4a\	.
.	.	1c	men-	.	.	4g\	.
.	.	.	.	.	.	4f\	.
2C/	.	.	.	1r	.	2e/	ſu-
!	!	!LO:SIC:v:t=custos A	!	!	!	!	!
2D/	cor-	1B	-te	.	.	2f/	-per-
!	!	!LO:LB:g=original	!	!	!	!	!
=113	=113	=113	=113	=113	=113	=113	=113
1D	-d(is)	.	.	0r	.	2d/	-bos
.	.	2A/	cor-	.	.	2.f/	men-
1BB	ſu-	2A/	-d(is)	.	.	.	.
.	.	.	.	.	.	4e/	-te
.	.	2G/	ſu-	.	.	2d/	cor-
=114	=114	=114	=114	=114	=114	=114	=114
0AA	-i	1A	-i	2r	.	0c	-d(is)
*	*	*	*ij	*	*	*	*Xij
.	.	.	.	2e\	men-	.	.
.	.	2r	.	2.e\	-te	.	.
.	.	2A/	men-	.	.	.	.
.	.	.	.	4d\	.	.	.
=115	=115	=115	=115	=115	=115	=115	=115
2r	.	2.A/	-te	2c/	cor-	2r	.
*	*ij	*	*	*	*	*	*
1D	cor-	.	.	2d/	.	2.f/	ſu-
.	.	4G/	cor-	.	.	.	.
.	.	2F/	-d(is)	2.d/	-dis	.	.
.	.	.	.	.	.	4e/	.
2GG/	-dis	2G/	ſu-	.	.	1e	.
.	.	.	.	4c/	.	.	.
=116	=116	=116	=116	=116	=116	=116	=116
1GG	ſu-	2.G/	.	1B-X	.	.	.
.	.	.	.	.	.	1d	.
.	.	4F/	.	.	.	.	.
1AA	.	1E	.	1A	ſu-	.	.
.	.	.	.	.	.	2c#X/	.
=117	=117	=117	=117	=117	=117	=117	=117
0D	-i	0D	-i	0A	-j	0d	-i
*	*Xij	*	*Xij	*	*	*	*
!LO:LB:g=original	!	!	!	!	!	!	!
==118	==118	==118	==118	==118	==118	==118	==118
*M2/1	*	*M2/1	*	*M2/1	*	*M2/1	*
*met(c|)	*	*met(c|)	*	*met(c|)	*	*met(c|)	*
!	!	!	!	!	!	!LO:TX:a:B:t=E ſurientes nil\ncantus inuat.	!
1.c	E-	1r	.	00.F	E-	0ryy	.
.	.	1.c	E-	.	.	.	.
2B\	-ſur-	.	.	.	.	.	.
=119	=119	=119	=119	=119	=119	=119	=119
2A\	-i-	.	.	.	.	0ryy	.
2G\	-en-	2B/	-ſur-	.	.	.	.
2F\	-tes	2A/	-ien-	.	.	.	.
2E\	.	2G/	-tes	.	.	.	.
=120	=120	=120	=120	=120	=120	=120	=120
2D/	.	2F/	.	.	.	0ryy	.
2C/	.	2E/	.	.	.	.	.
2BB/	.	2D/	.	.	.	.	.
2AA/	.	2C/	.	.	.	.	.
=121	=121	=121	=121	=121	=121	=121	=121
*	*	*lig	*	*lig	*	*	*
1GG	.	1D	.	0G	ſur-	0ryy	.
1C	.	1.E	.	.	.	.	.
*	*	*Xlig	*	*	*	*	*
=122	=122	=122	=122	=122	=122	=122	=122
2C/	.	.	.	0A	.	0ryy	.
4BB/	.	4D/	.	.	.	.	.
4AA/	.	4E/	.	.	.	.	.
2D/	.	2F/	.	.	.	.	.
2C/	.	2E/	.	.	.	.	.
*	*	*	*	*Xlig	*	*	*
=123	=123	=123	=123	=123	=123	=123	=123
!	!	!LO:SIC:v:t=custos D	!	!	!	!	!
2D/	.	2F/	.	0A	-ie-	0ryy	.
!	!	!LO:LB:g=original	!	!	!	!	!
2.F\	.	1D	.	.	.	.	.
8E/	.	.	.	.	.	.	.
8D/	.	.	.	.	.	.	.
2E/	.	2C/	.	.	.	.	.
=124	=124	=124	=124	=124	=124	=124	=124
2F/	.	2D/	.	00A	-ntes	0ryy	.
1D	e-	1F	.	.	.	.	.
2C/	ſur-	2E/	.	.	.	.	.
=125	=125	=125	=125	=125	=125	=125	=125
2D/	-ien-	2F/	.	.	.	0ryy	.
1F	-tes	1D	.	.	.	.	.
2E/	.	2C/	.	.	.	.	.
=126	=126	=126	=126	=126	=126	=126	=126
2F/	.	4D/	.	00A	.	0ryy	.
.	.	4E/	.	.	.	.	.
1D	.	4F/	.	.	.	.	.
.	.	4G/	.	.	.	.	.
.	.	4A/	.	.	.	.	.
.	.	4B/	.	.	.	.	.
2C/	.	2c\	.	.	.	.	.
=127	=127	=127	=127	=127	=127	=127	=127
1D	.	2A/	.	.	.	0ryy	.
.	.	1d	.	.	.	.	.
1AA	.	.	.	.	.	.	.
.	.	2c\	.	.	.	.	.
=128	=128	=128	=128	=128	=128	=128	=128
!LO:SIC:v:t=custos GG	!	!	!	!	!	!	!
1.BB	.	1d	.	0r	.	0ryy	.
!LO:LB:g=original	!	!	!	!	!	!	!
.	.	2r	.	.	.	.	.
2.GG/	.	2G/	im-	.	.	.	.
=129	=129	=129	=129	=129	=129	=129	=129
.	.	1B-X	-ple-	2r	.	0ryy	.
4AA/	.	.	.	.	.	.	.
4BB/	.	.	.	2d/	im-	.	.
4C/	.	.	.	.	.	.	.
1D	.	2A/	-vit	1f	-ple-	.	.
.	.	2F/	.	.	.	.	.
=130	=130	=130	=130	=130	=130	=130	=130
1C	.	2G/	bo-	2e\	.	0ryy	.
.	.	2A/	-nis	2c/	-vit	.	.
1r	.	2.B/	.	2.d\	bo-	.	.
.	.	8A/	.	4e\	.	.	.
.	.	8G/	.	.	.	.	.
=131	=131	=131	=131	=131	=131	=131	=131
0r	.	4F/	.	2.f\	-nis	0ryy	.
.	.	4E/	.	.	.	.	.
.	.	4F/	.	.	.	.	.
!	!	!LO:SIC:v:t=custos A	!	!	!	!	!
.	.	4G/	.	8e/	.	.	.
!	!	!LO:LB:g=original	!	!	!	!	!
!	!	!	!	!LO:SIC:v:t=custos c	!	!	!
.	.	.	.	8d/	.	.	.
!	!	!	!	!LO:LB:g=original	!	!	!
.	.	2A\	.	4c/	.	.	.
.	.	.	.	4d/	.	.	.
.	.	2.G/	.	2.e\	.	.	.
=132	=132	=132	=132	=132	=132	=132	=132
1r	.	.	.	.	.	0ryy	.
.	.	4F/	.	4d/	.	.	.
.	.	4E/	.	1d	Im-	.	.
.	.	4D/	.	.	.	.	.
2r	.	1E	.	.	.	.	.
2G\	im-	.	.	2c/	-ple-	.	.
=133	=133	=133	=133	=133	=133	=133	=133
1B-X	-ple-	2D/	im-	2d/	-vit	0ryy	.
.	.	2G/	-ple-	2d/	bo-	.	.
2A\	-vit	2F/	-vit	1f	.	.	.
2F\	.	2D/	.	.	.	.	.
=134	=134	=134	=134	=134	=134	=134	=134
2G\	bo-	2E/	bo-	2e/	.	0ryy	.
2A\	-nis	2F/	nis	2c/	.	.	.
2.B\	.	1BB-X	.	2.d/	-nis	.	.
8A\	.	.	.	4e/	.	.	.
8G\	.	.	.	.	.	.	.
=135	=135	=135	=135	=135	=135	=135	=135
2F\	.	0r	.	2f\	bo-	0ryy	.
2.G\	.	.	.	2.e\	.	.	.
4F/	.	.	.	4d\	.	.	.
4E/	.	.	.	1d	.	.	.
4D/	.	.	.	.	.	.	.
=136	=136	=136	=136	=136	=136	=136	=136
1E	.	2r	.	.	.	0ryy	.
.	.	2G/	im-	2c/	-nis	.	.
2D/	.	1B-X	-ple-	2d/	.	.	.
*	*ij	*	*	*	*ij	*	*
2G\	im-	.	.	2d/	im-	.	.
=137	=137	=137	=137	=137	=137	=137	=137
2F\	-ple-	2A/	-vit	1f	-ple-	0ryy	.
2D/	-vit	2F/	.	.	.	.	.
2E/	bo-	2G/	bo-	2e\	-vit	.	.
2F/	.	2A/	.	2c/	bo-	.	.
=138	=138	=138	=138	=138	=138	=138	=138
2.BB/	.	2.B/	.	2.d/	.	0ryy	.
4C/	.	4A/	.	4e/	.	.	.
2D/	.	2F/	.	2f\	.	.	.
2C/	.	2.G/	.	2.e\	.	.	.
=139	=139	=139	=139	=139	=139	=139	=139
1BB	.	.	.	.	.	0ryy	.
.	.	4F/	.	4d\	.	.	.
.	.	4E/	.	1d	.	.	.
.	.	4D/	.	.	.	.	.
!LO:SIC:v:t=custos D	!	!	!	!	!	!	!
1AA	.	1E	.	.	.	.	.
!LO:LB:g=original	!	!	!	!	!	!	!
.	.	.	.	2c/	.	.	.
=140	=140	=140	=140	=140	=140	=140	=140
1D	-nis	0D	-nis	0d	-nis	0ryy	.
*	*Xij	*	*	*	*	*	*
2r	.	.	.	.	.	.	.
2D/	im-	.	.	.	.	.	.
*	*	*	*	*	*Xij	*	*
=141	=141	=141	=141	=141	=141	=141	=141
!	!	!LO:SIC:v:t=custos A	!	!	!	!	!
1F	-ple-	2r	.	0r	.	0ryy	.
!	!	!LO:LB:g=original	!	!	!	!	!
.	.	2A/	im-	.	.	.	.
2E/	-vit	1c	-ple-	.	.	.	.
2C/	.	.	.	.	.	.	.
=142	=142	=142	=142	=142	=142	=142	=142
2D/	bo-	2B\	-vit	0r	.	0ryy	.
2E/	-nis	2G/	.	.	.	.	.
2.F\	.	2.A/	.	.	.	.	.
4E/	.	4B/	.	.	.	.	.
=143	=143	=143	=143	=143	=143	=143	=143
2C/	.	2c\	bo-	0r	.	0ryy	.
2.D/	.	2.B\	-nis	.	.	.	.
4C/	.	4A/	.	.	.	.	.
2AA/	.	1A	.	.	.	.	.
=144	=144	=144	=144	=144	=144	=144	=144
1BB	.	.	.	2r	.	0ryy	.
!	!	!	!	!LO:SIC:v:t=custos f	!	!	!
.	.	2G/	.	2d/	im-	.	.
!	!	!	!	!LO:LB:g=original	!	!	!
2AA/	.	2A/	.	1f	-ple-	.	.
2D/	.	4r	.	.	.	.	.
*	*	*	*ij	*	*	*	*
.	.	4F/	im-	.	.	.	.
=145	=145	=145	=145	=145	=145	=145	=145
2C/	.	2G/	-ple-	2e\	-vit	0ryy	.
2AA/	.	2A/	-vit	2c/	.	.	.
1GG	.	2.B-X/	bo-	2.d/	.	.	.
.	.	4A/	.	4e\	bo-	.	.
=146	=146	=146	=146	=146	=146	=146	=146
2D/	.	2F/	.	2f\	.	0ryy	.
2C/	.	2.G/	.	1e	.	.	.
1D	.	.	.	.	.	.	.
.	.	8F/	.	.	.	.	.
.	.	8E/	.	.	.	.	.
.	.	2F/	.	1d	.	.	.
=147	=147	=147	=147	=147	=147	=147	=147
1E-X	.	2G/	.	.	.	0ryy	.
.	.	2A/	.	2c/	.	.	.
1BB	.	1B-X	-nis	2d\	nis	.	.
.	.	.	.	2f\	.	.	.
=148	=148	=148	=148	=148	=148	=148	=148
2r	.	2.c\	im-	2e\	.	0ryy	.
2F\	im-	.	.	2c/	.	.	.
.	.	4A\	-ple-	.	.	.	.
2D/	-ple-	2B\	-vit	2d/	.	.	.
!	!	!LO:SIC:v:t=custos A	!	!	!	!	!
2C/	-vit	2c\	bo-	2e\	.	.	.
!	!	!LO:LB:g=original	!	!	!	!	!
=149	=149	=149	=149	=149	=149	=149	=149
2F\	.	2.A/	.	2f\	.	0ryy	.
2C/	bo-	.	.	1e	.	.	.
.	.	4G/	.	.	.	.	.
2D/	.	4F/	.	.	.	.	.
.	.	4E/	.	.	.	.	.
!LO:SIC:v:t=custos AA	!	!	!	!	!	!	!
2GG/	.	2G/	.	1d\	.	.	.
!LO:LB:g=original	!	!	!	!	!	!	!
=150	=150	=150	=150	=150	=150	=150	=150
1AA	.	1E	.	.	.	0ryy	.
.	.	.	.	2c/	.	.	.
0D	-nis	1D	-nis	0d	.	.	.
*	*	*	*Xij	*	*	*	*
=151	=151	=151	=151	=151	=151	=151	=151
.	.	2r	.	.	.	0ryy	.
.	.	2A/	et	.	.	.	.
2r	.	2.A/	di-	2r	.	.	.
2AA/	et	.	.	2c/	et	.	.
.	.	4A/	-ni-	.	.	.	.
=152	=152	=152	=152	=152	=152	=152	=152
2.AA/	di-	1A	-tes	2.c/	di-	0ryy	.
4AA/	-ni-	.	.	4c/	-ni-	.	.
2AA/	-tes	2r	.	2c/	-tes	.	.
2A\	di-	2c\	di-	2f\	di-	.	.
=153	=153	=153	=153	=153	=153	=153	=153
2.A\	-mi-	2.c\	-mi-	2.f\	-mi-	0ryy	.
4G\	.	4B\	.	4e\	.	.	.
2F\	-ſit	2A/	-ſit	2d\	-ſit	.	.
1G	in	2.B/	in	2.e\	in	.	.
=154	=154	=154	=154	=154	=154	=154	=154
.	.	.	.	.	.	0ryy	.
.	.	4A/	.	4d/	a-	.	.
2F\	a-	1A	a-	1d	.	.	.
1E	-nes	.	.	.	.	.	.
!	!	!	!	!LO:SIC:v:t=custos d	!	!	!
.	.	2G/	-nes	2c/	.	.	.
!	!	!	!	!LO:LB:g=original	!	!	!
=155	=155	=155	=155	=155	=155	=155	=155
1.D	.	1A	.	2d/	-nes	0ryy	.
.	.	.	.	1f	.	.	.
.	.	2r	.	.	.	.	.
*	*	*	*ij	*	*	*	*
4C/	.	2A/	di-	4e\	in	.	.
4BB/	.	.	.	4d\	.	.	.
=156	=156	=156	=156	=156	=156	=156	=156
2AA/	.	2.A/	-mi-	2c\	.	0ryy	.
1D	.	.	.	2.f\	a-	.	.
.	.	4G/	-ſit	.	.	.	.
.	.	2F/	in	.	.	.	.
.	.	.	.	4e\	.	.	.
2GG/	in	2.G/	a-	2.e\	.	.	.
=157	=157	=157	=157	=157	=157	=157	=157
*lig	*	*	*	*	*	*	*
1BB-X	a-	.	.	.	.	0ryy	.
.	.	4F/	.	4d\	.	.	.
.	.	4E/	.	1d	.	.	.
.	.	4D/	.	.	.	.	.
1AA	.	1E	.	.	.	.	.
.	.	.	.	2c/	-nes	.	.
*Xlig	*	*	*	*	*	*	*
=158	=158	=158	=158	=158	=158	=158	=158
!	!	!LO:SIC:v:t=custos F	!	!	!	!	!
0D	-nes	0D	-nes	0d	.	0ryy	.
!	!	!LO:LB:g=original	!	!	!	!	!
*	*	*	*Xij	*	*	*	*
==159	==159	==159	==159	==159	==159	==159	==159
0r	.	1F	Si-	0r	.	0r	.
*	*	*lig	*	*	*	*	*
.	.	1G	-cit	.	.	.	.
=160	=160	=160	=160	=160	=160	=160	=160
1r	.	1A	.	0r	.	0r	.
*	*	*Xlig	*	*	*	*	*
1F	Si-	2D/	lo-	.	.	.	.
.	.	2F/	-qun-	.	.	.	.
=161	=161	=161	=161	=161	=161	=161	=161
*lig	*	*	*	*	*	*	*
1G	-cut	1E	-tus	1r	.	0r	.
1A	.	1F	eſt	1c	Si-	.	.
*Xlig	*	*	*	*	*	*	*
=162	=162	=162	=162	=162	=162	=162	=162
*	*	*	*ij	*lig	*	*	*
2D/	lo-	2r	.	1d	-cut	1f	Si-
!	!	!LO:TX:t=P:problem=brak znaku powtórzenia tekstu	!	!	!	!	!
2F\	-qun-	2A/	Si-	.	.	.	.
*	*	*	*	*	*	*lig	*
1E	-t(us)	2B/	-cut	1e	.	1g	-cut
.	.	2G/	.	.	.	.	.
*	*	*	*	*Xlig	*	*	*
=163	=163	=163	=163	=163	=163	=163	=163
!	!	!	!	!	!	!LO:SIC:v:t=custos d	!
0D	eſt	2d\	lo-	2A/	lo-	1a	.
.	.	2.D/	-qun-	1f	-qun-	.	.
!	!	!	!	!	!	!LO:LB:g=original	!
*	*	*	*	*	*	*Xlig	*
.	.	.	.	.	.	2d/	lo-
.	.	4E/	-tus	.	.	.	.
.	.	2F/	.	4e\	-tus	2a\	-qun-
.	.	.	.	4d\	.	.	.
=164	=164	=164	=164	=164	=164	=164	=164
!LO:SIC:v:t=custos AA	!	!	!	!	!	!	!
1r	.	1G	.	2e\	.	2.g/	-tus
!LO:LB:g=original	!	!	!	!	!	!	!
.	.	.	.	1d	.	.	.
.	.	.	.	.	.	4f/	.
1AA	Si-	1A	eſt	.	.	1e	eſt
.	.	.	.	2c/	eſt	.	.
*	*	*	*Xij	*	*	*	*
=165	=165	=165	=165	=165	=165	=165	=165
1D	-cut	2r	.	2.d/	.	2.d/	.
.	.	2A/	ad	.	.	.	.
.	.	.	.	4c/	.	4e/	.
2r	.	1d	pa-	2B/	.	4f/	.
.	.	.	.	.	.	4e/	.
2D/	lo-	.	.	2A/	.	2f/	.
=166	=166	=166	=166	=166	=166	=166	=166
2E/	-qun-	2c/	-tres	2e\	.	2g/	.
2F\	.	2A/	.	2r	.	2a/	.
2.G\	-tus	1B	.	1r	.	2r	.
.	.	.	.	.	.	2d/	ad
4F\	.	.	.	.	.	.	.
=167	=167	=167	=167	=167	=167	=167	=167
1D	eſt	2A/	no-	1r	.	1a	p(at)-
.	.	2F/	-ſtros	.	.	.	.
1r	.	2G/	.	2r	.	2g/	-res
.	.	2A/	.	2A/	ad	2e/	.
=168	=168	=168	=168	=168	=168	=168	=168
!	!	!	!	!LO:SIC:v:t=custos c	!	!	!
2r	.	2D/	.	1d	pa-	1f	n(ost)-
!	!	!	!	!LO:LB:g=original	!	!	!
2D/	ad	2.A\	.	.	.	.	.
1A	p(at)-	.	.	2c/	.	1e	-ros
.	.	4B\	.	.	.	.	.
!	!	!LO:SIC:v:t=custos d	!	!	!	!	!
.	.	2c\	.	2A/	-tres	.	.
!	!	!LO:LB:g=original	!	!	!	!	!
=169	=169	=169	=169	=169	=169	=169	=169
2.G\	-res	2d\	.	2B/	no-	2r	.
*	*	*	*	*	*	*	*ij
.	.	2e\	.	2c/	.	2e/	ad
8F/	.	.	.	.	.	.	.
8E/	.	.	.	.	.	.	.
1F	no-	2c\	.	1A	-ſtros	1a	p(at)-
.	.	2d\	.	.	.	.	.
=170	=170	=170	=170	=170	=170	=170	=170
1E	-ſtros	2B\	.	2r	.	2g/	-res
*	*ij	*	*	*	*ij	*	*
.	.	2c\	ad	2G/	ad	2e/	n(oſt)-
2r	.	2d\	.	1d	pa-	1f	.
2D\	ad	2.A/	pa-	.	.	.	.
=171	=171	=171	=171	=171	=171	=171	=171
1A	p(at)-	.	.	2c\	-tres	2e/	.
.	.	4B/	-tres	.	.	.	.
.	.	2c\	.	2A/	no-	2.cc\	.
2G\	-res	2d\	.	2.B/	.	.	.
.	.	.	.	.	.	4b\	.
2E/	.	2e\	.	.	.	2.b\	.
.	.	.	.	4c/	.	.	.
=172	=172	=172	=172	=172	=172	=172	=172
1F	no-	4d\	no-	1A	.	.	.
.	.	4c\	-ſtros	.	.	4a/	.
.	.	4B\	.	.	.	2a/	.
.	.	4A\	.	.	.	.	.
1E	-ſtros	1B	.	1e	.	2a/	.
.	.	.	.	.	.	2g/	.
*	*Xij	*	*	*	*	*	*
=173	=173	=173	=173	=173	=173	=173	=173
2r	.	2r	.	2d/	.	2f/	.
!	!	!	!	!	!	!LO:SIC:v:t=custos f	!
2AA/	ad	2.A/	no-	2c/	.	2e/	.
!	!	!	!	!	!	!LO:LB:g=original	!
1D	p(at)-	.	.	2A/	-ſtros	2f/	.
.	.	4G/	.	.	.	.	.
.	.	1F	.	1B	no-	2d/	ros
*	*	*	*	*	*	*	*Xij
=174	=174	=174	=174	=174	=174	=174	=174
2C/	-res	.	.	.	.	2r	.
2AA/	.	1E	.	1A	.	2a/	-ad-
1BB-X	no-	.	.	.	.	1dd	.
.	.	2D/	-ſtros	2G/	-ſtros	.	.
=175	=175	=175	=175	=175	=175	=175	=175
1AA	-ſtros	2F/	.	0A	.	2.cc\	pat-
.	.	2E/	.	.	.	.	.
.	.	.	.	.	.	4b\	.
1D	.	2r	.	.	.	4a/	-res
.	.	.	.	.	.	4g/	.
!	!	!LO:TX:t=P:problem=brak znaku powtórzenia tekstu	!	!	!	!	!
*	*	*	*ij	*	*	*	*
.	.	2D/	ad	.	.	1f	.
=176	=176	=176	=176	=176	=176	=176	=176
2C/	.	2.A/	pa-	1r	.	.	.
!LO:SIC:v:t=custos BB-	!	!	!	!	!	!	!
2AA/	.	.	.	.	.	2.e/	.
!LO:LB:g=original	!	!	!	!	!	!	!
.	.	4G/	-tres	.	.	.	.
!	!	!	!	!LO:TX:t=P:problem=brak znaku powtórzenia tekstu	!	!	!
1BB	.	2F/	no-	1D	ad-	.	.
.	.	.	.	.	.	4d/	no-
.	.	4E/	.	.	.	1d	.
.	.	4D/	.	.	.	.	.
=177	=177	=177	=177	=177	=177	=177	=177
!	!	!LO:SIC:v:t=custos D	!	!	!	!	!
1AA	.	1E	.	2.A/	-pa-	.	.
!	!	!LO:LB:g=original	!	!	!	!	!
.	.	.	.	.	.	2c/	-ſt-
.	.	.	.	4G/	-tres	.	.
1.D	.	1D	-ſtros	2A/	no-	0.d	-ros
*	*	*	*Xij	*	*	*	*
.	.	.	.	2.B/	.	.	.
=178	=178	=178	=178	=178	=178	=178	=178
.	.	2r	.	.	.	.	.
.	.	.	.	4A/	.	.	.
2C/	.	2A/	ad	1A	.	.	.
1BB	.	1d	p(at-	.	.	.	.
.	.	.	.	2G/	.	.	.
=179	=179	=179	=179	=179	=179	=179	=179
2AA/	.	2c\	-r)es	2A/	.	1r	.
2.A\	.	2A/	no-	2D/	.	.	.
.	.	1B	-(ſt)ros	2.G/	.	2r	.
4G\	.	.	.	.	.	.	.
1G	.	.	.	.	.	2d/	ad
!	!	!	!	!LO:SIC:v:t=custos D	!	!	!
.	.	.	.	4F/	.	.	.
!	!	!	!	!LO:LB:g=original	!	!	!
=180	=180	=180	=180	=180	=180	=180	=180
.	.	2r	.	1D	-ſtros	1a	pat-
*	*	*	*ij	*	*Xij	*	*
2F\	.	2A/	ad	.	.	.	.
2G\	.	2B\	p(at-	2r	.	2g/	-res
2A\	.	2c\	-r)es	2A/	ad	2e/	.
=181	=181	=181	=181	=181	=181	=181	=181
1D	ad	2d\	no-	1d	pa-	1f	no-
.	.	2.A/	.	.	.	.	.
1A	pat-	.	.	2c/	-tres	2e/	.
.	.	4B/	.	.	.	.	.
.	.	2c\	.	2A/	.	2cc\	.
=182	=182	=182	=182	=182	=182	=182	=182
2G\	-res	2d\	.	2B/	.	2b\	.
2E/	.	2e\	.	2c/	.	2g/	.
1F	no-	2c\	.	2.A/	.	1a	.
.	.	2d\	.	.	.	.	.
.	.	.	.	4B/	.	.	.
=183	=183	=183	=183	=183	=183	=183	=183
2E/	.	1e	.	4c/	.	2g/	.
.	.	.	.	4d/	.	.	.
2C/	-ſtros	.	.	2e\	.	2cc\	.
2D/	.	4d\	.	2f\	.	4b\	.
.	.	4c\	.	.	.	4a\	.
2F/	.	4B\	.	2d\	no-	1a	.
.	.	4A\	.	.	.	.	.
=184	=184	=184	=184	=184	=184	=184	=184
1E	.	1B	.	1e	.	.	.
.	.	.	.	.	.	2g/	.
*lig	*	*	*	*	*	*	*
1AA	.	0A	-(ſt)ros	1c	-ſtros	1a	-ſtros
=185	=185	=185	=185	=185	=185	=185	=185
1D	.	.	.	1.d	A-	1r	.
*Xlig	*	*	*Xij	*	*	*	*
1r	.	1r	.	.	.	1.a	Ab-
.	.	.	.	2d\	-bra-	.	.
=186	=186	=186	=186	=186	=186	=186	=186
1.D	A-	1r	.	0.d	-ha(m)	.	.
.	.	.	.	.	.	2a/	-ra-
.	.	1.A	A-	.	.	00a	-ha-
2D\	-bra-	.	.	.	.	.	.
=187	=187	=187	=187	=187	=187	=187	=187
0D	-ha(m)	.	.	.	.	.	.
.	.	2A/	-bra-	.	.	.	.
.	.	0A	-ha(m)	2r	.	.	.
.	.	.	.	2d\	et	.	.
=188	=188	=188	=188	=188	=188	=188	=188
2r	.	.	.	2c\	ſe-	.	-m(us)
2D\	et	.	.	2d\	-mi-	.	.
!	!	!LO:SIC:v:t=custos A	!	!	!	!	!
2F\	ſe-	2r	.	2.c\	-niſ	1r	.
!	!	!LO:LB:g=original	!	!	!	!	!
!LO:SIC:v:t=custos E	!	!	!	!	!	!	!
2F\	-mi-	2A/	et	.	.	.	.
!LO:LB:g=original	!	!	!	!	!	!	!
.	.	.	.	4d\	e-	.	.
=189	=189	=189	=189	=189	=189	=189	=189
2E/	-ni	2c\	ſe-	1e	-uis	0r	.
2C/	e-	2c\	-mi-	.	.	.	.
2.G\	-ius	2B\	-niſ	2r	.	.	.
.	.	2G/	e-	2d\	et	.	.
8F/	.	.	.	.	.	.	.
8E/	.	.	.	.	.	.	.
=190	=190	=190	=190	=190	=190	=190	=190
!	!	!	!	!	!	!LO:SIC:v:t=custos a	!
1D	.	2d\	-uis	2f\	fe-	2r	.
!	!	!	!	!	!	!LO:LB:g=original	!
.	.	2D/	ni	2f\	-mi-	2a/	et
1r	.	2A/	fae-	2e\	-niſ	2cc\	ſe-
!	!	!	!	!LO:SIC:v:t=custos g	!	!	!
.	.	2A/	-cu-	2c\	.	2cc\	-mi-
!	!	!	!	!LO:LB:g=original	!	!	!
=191	=191	=191	=191	=191	=191	=191	=191
1r	.	1G	-la	2.g\	e-	2b\	-ni
.	.	.	.	.	.	2g/	e-
.	.	.	.	8f/	.	.	.
.	.	.	.	8e/	.	.	.
2r	.	1r	.	1d	-uis	2.dd\	-ius
*	*ij	*	*	*	*	*	*
2D/	et	.	.	.	.	.	.
.	.	.	.	.	.	8cc/	.
.	.	.	.	.	.	8b/	.
=192	=192	=192	=192	=192	=192	=192	=192
2F\	ſe-	2r	.	2c/	.	4a/	.
.	.	.	.	.	.	4g/	.
2F\	-mi-	2A/	et	2d/	.	2a/	.
2E\	-ni	2c\	ſe-	1e	.	0g	.
2C/	e-	2c\	-mi-	.	.	.	.
=193	=193	=193	=193	=193	=193	=193	=193
2.G\	-ius	2B\	-ni	2r	.	.	.
.	.	2G/	e-	2d/	.	.	.
8F/	.	.	.	.	.	.	.
8E/	.	.	.	.	.	.	.
1D	.	2d\	-uis	2f\	et	2r	.
*	*Xij	*	*	*	*	*	*ij
.	.	2D/	ni	2f\	ſe-	2a/	et
=194	=194	=194	=194	=194	=194	=194	=194
0r	.	2A/	ſae-	2e\	-mi-	2cc\	ſe-
.	.	2A/	-cu-	2c/	-ni	2cc\	-mi-
.	.	2.G/	-la	2.g\	e-	2b\	-ni
.	.	.	.	.	.	2g/	e-
.	.	4A/	.	8f/	-ius	.	.
.	.	.	.	8e/	.	.	.
=195	=195	=195	=195	=195	=195	=195	=195
2r	.	4B\	.	2.d/	.	2.dd\	.
.	.	4c\	.	.	.	.	.
2G\	et	2d\	.	.	.	.	.
.	.	.	.	4e/	.	8cc/	.
.	.	.	.	.	.	8b/	.
2F\	ſe-	2r	.	1f	.	4a/	.
.	.	.	.	.	.	4g/	.
2D/	-mi-	2d\	et	.	.	2a/	-ius
*	*	*	*	*	*	*	*Xij
=196	=196	=196	=196	=196	=196	=196	=196
2E/	-ni	2B\	ſe-	1e	.	2r	.
2C/	e-	2c\	-mi-	.	.	2g/	et
2D/	-ius	2A/	-ni	3.d/	.	2f/	ſe-
!	!	!LO:SIC:v:t=custos G	!	!	!	!	!
2D/	.	2F/	e-	6c/	.	2d/	-mi-
!	!	!LO:LB:g=original	!	!	!	!	!
.	.	.	.	6A/	.	.	.
.	.	.	.	6B/	.	.	.
=197	=197	=197	=197	=197	=197	=197	=197
2C/	.	2G/	-ius	1c	.	2e/	-(ni)
2AA/	.	2A/	.	.	.	2c/	e-
2BB-X/	.	4G/	in	2r	.	2d/	-ius
.	.	4F/	.	.	.	.	.
2GG/	in	2B\	.	2d\	ni	2g/	.
=198	=198	=198	=198	=198	=198	=198	=198
2D/	ſae-	2.A/	.	2c/	ſae-	2f/	ni
2C/	-cu-	.	.	2A/	.	2d/	.
.	.	4F/	.	.	.	.	.
2AA/	-la	2G/	ſae-	1c	.	4e/	ſae-
.	.	.	.	.	.	4c/	.
2BB-X/	.	2A/	.	.	.	2.e/	.
=199	=199	=199	=199	=199	=199	=199	=199
*	*	*	*	*lig	*	*	*
1AA	.	2F/	.	1B-X	-cu-	.	.
.	.	.	.	.	.	4d/	.
.	.	2G/	.	.	.	1d	.
0.D	.	1E	-cu-	1A	.	.	.
.	.	.	.	.	.	2c#X/	-cu-
*	*	*	*	*Xlig	*	*	*
!LO:LB:g=original	!	!	!	!	!	!	!
=200	=200	=200	=200	=200	=200	=200	=200
!	!	!	!	!LO:SIC:v:t=custos c	!	!	!
.	.	0D	-la	0A	-la	0d	-la
!	!	!	!	!LO:LB:g=original	!	!	!
!	!	!	!	!	!	!LO:LB:g=original	!
==201	==201	==201	==201	==201	==201	==201	==201
*M3/1	*	*M3/1	*	*M3/1	*	*M3/1	*
*met(c|)	*	*met(c|)	*	*met(c|)	*	*met(c|)	*
0F	Si-	0F	Sui-	0c	Sui-	00.f	Si-
*lig	*	*	*	*	*	*	*
0BB-X	-(c)ut	0B-X	-(c)ut	00d	-(c)ut	.	.
=202	=202	=202	=202	=202	=202	=202	=202
.	.	.	.	.	.	.	.
*	*	*lig	*	*	*	*	*
0D	.	1A	e-	.	.	.	.
.	.	1F	.	.	.	.	.
*Xlig	*	*Xlig	*	*	*	*	*
=203	=203	=203	=203	=203	=203	=203	=203
*	*	*	*	*	*	*lig	*
0.C	e-	0.c	-rat	0.e	e-	0.g	-cut
=204	=204	=204	=204	=204	=204	=204	=204
*	*	*lig	*	*	*	*lig	*
1.F	-rat	1A	in	0f	-rat	0.a	.
.	.	1d	.	.	.	.	.
2G\	.	.	.	.	.	.	.
*	*	*Xlig	*	*	*	*	*
1A	in	1c	prin-	1e	.	.	.
=205	=205	=205	=205	=205	=205	=205	=205
*lig	*	*	*	*	*	*	*
1D	prin-	1d	-ci-	0f	.	0a	e-
1F	.	2c\	-pi-	.	.	.	.
.	.	2A/	-o	.	.	.	.
*Xlig	*	*	*	*	*	*	*
1C	-ci-	1e	.	1r	.	1g	-rat
=206	=206	=206	=206	=206	=206	=206	=206
*lig	*	*	*	*	*	*	*
1F	-pi-	0c	.	0f	ni	0a	ni
1A	.	.	.	.	.	.	.
*Xlig	*	*	*	*	*	*	*
!	!	!LO:SIC:v:t=custos e	!	!	!	!	!
1G	-o	1d	.	1g	prin-	1b	.
!	!	!LO:LB:g=original	!	!	!	!	!
=207	=207	=207	=207	=207	=207	=207	=207
1C	.	0e	.	0g	-ci-	1cc	prin-
1E	.	.	.	.	.	1.b	.
*	*	*lig	*	*	*	*	*
1D	.	0A	.	1f	-pi-	.	.
.	.	.	.	.	.	2a/	.
=208	=208	=208	=208	=208	=208	=208	=208
1F	.	.	.	1d	-o	0a	-ci-
0E	.	0B	.	0e	.	.	.
.	.	.	.	.	.	1g#X	-pi-
*	*	*Xlig	*	*	*	*	*
=209	=209	=209	=209	=209	=209	=209	=209
*M2/1	*	*M2/1	*	*M2/1	*	*M2/1	*
*met(c|)	*	*met(c|)	*	*met(c|)	*	*met(c|)	*
1AA	.	1A	.	1c	.	0a	-o
1r	.	2.D/	et	1r	.	.	.
.	.	4E/	.	.	.	.	.
=210	=210	=210	=210	=210	=210	=210	=210
0r	.	4F/	.	1f	et	2r	.
.	.	4G/	.	.	.	.	.
.	.	1A	.	.	.	1cc	et
.	.	.	.	2e\	nunc	.	.
.	.	2.G/	nunc	2.g\	.	2b\	nu(nc)
=211	=211	=211	=211	=211	=211	=211	=211
0r	.	.	.	.	.	2.dd\	et
.	.	4A/	.	4f\	.	.	.
.	.	4B/	.	4d\	et	.	.
.	.	8A/	.	4e\	.	4cc\	.
.	.	8G/	.	.	.	.	.
.	.	1F	.	2.f\	ſem-	4a\	.
.	.	.	.	.	.	4b\	.
.	.	.	.	.	.	1cc\	ſem-
.	.	.	.	8e/	per	.	.
.	.	.	.	8d/	.	.	.
=212	=212	=212	=212	=212	=212	=212	=212
1F	et	2r	.	2.c/	.	.	.
.	.	1c	et	.	.	4b\	.
.	.	.	.	4d/	.	4a\	.
2E\	nunc	.	.	2e\	.	2.g/	-per
2.G\	.	2B/	nunc	2.d\	.	.	.
.	.	.	.	.	.	4a/	.
=213	=213	=213	=213	=213	=213	=213	=213
.	.	2.d\	.	.	.	2b\	.
4F\	.	.	.	4e\	.	.	.
2D/	et	.	.	2f\	.	2a\	.
.	.	4c\	.	.	.	.	.
2.F\	ſem-	2.A/	et	2r	.	2r	.
!	!	!	!	!LO:TX:t=P:LO:N:vis=1:problem	!	!	!
*	*	*	*	*	*	*	*ij
.	.	.	.	2f\	et	1cc	et
4E\	.	4B/	.	.	.	.	.
=214	=214	=214	=214	=214	=214	=214	=214
2C/	-per	4c/	ſem-	2e\	nunc	.	.
.	.	4B/	.	.	.	.	.
!	!	!	!	!	!	!LO:SIC:v:t=custos dd	!
2r	.	2.G/	-per	2.g\	.	2b\	.
!	!	!	!	!	!	!LO:LB:g=original	!
1r	.	.	.	.	.	2.dd\	nu(nc)
.	.	4A/	.	4f\	.	.	.
.	.	4B/	.	4d\	et	.	.
.	.	8A/	.	4e\	.	4cc\	et
.	.	8G/	.	.	.	.	.
=215	=215	=215	=215	=215	=215	=215	=215
!LO:SIC:v:t=custos F	!	!	!	!	!	!	!
1r	.	1F	.	2.f\	ſem-	4a\	.
!LO:LB:g=original	!	!	!	!	!	!	!
.	.	.	.	.	.	4b\	.
.	.	.	.	.	.	1cc	ſem-
.	.	.	.	8e/	-per	.	.
.	.	.	.	8d/	.	.	.
*	*ij	*	*	*	*	*	*
!	!	!LO:SIC:v:t=custos c	!	!	!	!	!
1F	et	2r	.	2.c/	.	.	.
!	!	!LO:LB:g=original	!	!	!	!	!
*	*	*	*ij	*	*	*	*
.	.	1c	et	.	.	4b\	-per
*	*	*	*	*	*	*	*Xij
.	.	.	.	4d/	.	4a\	.
=216	=216	=216	=216	=216	=216	=216	=216
2E\	nunc	.	.	2e\	.	2.g/	.
2.G\	et	2B/	nunc	2.d\	.	.	.
.	.	.	.	.	.	4a/	.
.	.	2.d\	.	.	.	2b\	.
4F\	.	.	.	4e\	.	.	.
2D/	.	.	.	2f\	.	2a\	.
.	.	4c\	.	.	.	.	.
=217	=217	=217	=217	=217	=217	=217	=217
!	!	!	!	!LO:SIC:v:t=custos f	!	!	!
2.F\	ſem-	2.A/	et	2r	.	1a	et
!	!	!	!	!LO:LB:g=original	!	!	!
.	.	.	.	1f	et	.	.
4E\	.	4B/	ſem-	.	.	.	.
1C	-per	4c\	.	.	.	2g/	nu(n)c
.	.	4B\	.	.	.	.	.
.	.	2G/	.	2e\	ni	2.cc\	et
=218	=218	=218	=218	=218	=218	=218	=218
2r	.	2A\	.	2.f\	.	.	.
.	.	.	.	.	.	4b\	.
!LO:TX:t=P:problem=brak znaku powtórzenia tekstu	!	!	!	!	!	!	!
1F	et	2F/	-per	.	.	4a\	.
*	*	*	*Xij	*	*	*	*
.	.	.	.	4e\	ſae-	4g\	.
.	.	2r	.	4c/	.	2a\	.
.	.	.	.	4d/	cu-	.	.
2E\	nunc	2c\	et	2e\	-la	2.g/	ſem-
=219	=219	=219	=219	=219	=219	=219	=219
2.G\	et	2B\	.	2.d\	.	.	.
.	.	.	.	.	.	4a/	.
.	.	2.d\	nunc	.	.	2b\	-per
4F\	.	.	.	4e\	.	.	.
2D\	.	.	.	2.f\	.	1a	.
.	.	4c\	.	.	.	.	.
2.F\	ſem-	2A/	et	.	.	.	.
.	.	.	.	8e/	.	.	.
.	.	.	.	8d/	.	.	.
=220	=220	=220	=220	=220	=220	=220	=220
.	.	2.c\	ſem-	4c/	.	2r	.
4E\	.	.	.	4d/	.	.	.
*	*	*	*	*	*	*	*ij
4C/	.	.	.	1e	.	2.cc\	et
4D/	.	4B/	.	.	.	.	.
2E/	.	2G/	-per	.	.	.	.
.	.	.	.	.	.	4b\	nu(n)c
2D/	.	1d	.	2.f\	.	2.b\	et
=221	=221	=221	=221	=221	=221	=221	=221
*lig	*	*	*	*	*	*	*
1F	.	.	.	.	.	.	.
.	.	.	.	4e\	.	4a\	ſem-
.	.	2A/	.	4d\	.	1a	-per
.	.	.	.	4c\	.	.	.
1E	.	1B	.	1e	.	.	.
.	.	.	.	.	.	2g/	.
*Xlig	*	*	*	*	*	*	*Xij
=222	=222	=222	=222	=222	=222	=222	=222
1F	-per	1A	.	1c	.	1a	.
*	*Xij	*	*	*	*	*	*
2r	.	2r	.	2r	.	2r	.
1D	et	1d	et	1f	et	1a	et
=223	=223	=223	=223	=223	=223	=223	=223
.	.	.	.	.	.	.	.
!	!	!	!	!	!	!LO:SIC:v:t=custos a	!
2D/	ni	2d\	ni	2f\	ni	2a/	in
!	!	!	!	!	!	!LO:LB:g=original	!
2D/	ſae-	2d\	ſae-	2f\	ſae-	2a/	ſae-
2D/	-cu-	2d\	-cu-	2f\	-cu-	2a/	-cu-
=224	=224	=224	=224	=224	=224	=224	=224
1A	-la	1c	-la	0e	-la	0a	-la
2r	.	2r	.	.	.	.	.
!	!	!LO:SIC:v:t=custos e	!	!	!	!	!
2A\	ſae-	2e\	ſae-	.	.	.	.
!	!	!LO:LB:g=original	!	!	!	!	!
=225	=225	=225	=225	=225	=225	=225	=225
2.c\	-cu-	2.e\	-cu-	0r	.	0r	.
4B\	-lo-	4d\	-lo-	.	.	.	.
!LO:SIC:v:t=custos B	!	!	!	!	!	!	!
2A\	-ru(m)	2c\	-ru(m)	.	.	.	.
2.B\	a-	1d	A-	.	.	.	.
!LO:LB:g=original	!	!	!	!	!	!	!
=226	=226	=226	=226	=226	=226	=226	=226
.	.	.	.	0r	.	0r	.
4A\	.	.	.	.	.	.	.
1A	.	2c\	.	.	.	.	.
.	.	1B	.	.	.	.	.
2G\	-men	.	.	.	.	.	.
=227	=227	=227	=227	=227	=227	=227	=227
1A	.	1A	-men	2r	.	2r	.
.	.	.	.	2e\	ſae-	2cc\	ſae-
2r	.	1r	.	2.e\	-cu-	2.cc\	-cu-
1A	.	.	.	.	.	.	.
.	.	.	.	4d\	-lo-	4b\	-lo-
=228	=228	=228	=228	=228	=228	=228	=228
.	.	0r	.	2c/	-ru(m)	2a\	-ru(m)
2G\	.	.	.	1d	A-	2.b\	A-
*lig	*	*	*	*	*	*	*
1F	.	.	.	.	.	.	.
.	.	.	.	.	.	4a\	.
.	.	.	.	2c/	.	1a	-men
=229	=229	=229	=229	=229	=229	=229	=229
!	!	!	!	!LO:SIC:v:t=custos A	!	!	!
1E	.	0r	.	1B	-me(n)	.	.
!	!	!	!	!LO:LB:g=original	!	!	!
.	.	.	.	.	.	2g/	.
*Xlig	*	*	*	*	*	*	*
1AA	.	.	.	2A/	.	2a/	.
.	.	.	.	2e\	.	1cc	.
=230	=230	=230	=230	=230	=230	=230	=230
2r	.	2r	.	1e	.	.	.
2E/	ſae-	2c\	ſae-	.	.	4b\	.
.	.	.	.	.	.	4a\	.
!	!	!	!	!	!	!LO:TX:a:t=44	!
2.E/	-cu-	2.c\	-cu-	1r	.	1g	.
4D/	-lo-	4B/	-lo-	.	.	.	.
=231	=231	=231	=231	=231	=231	=231	=231
2C/	-ru(m)	2A/	.	0r	.	0r	.
2.D/	A-	1B	-ru(m)	.	.	.	.
4C/	.	.	.	.	.	.	.
4BB/	.	1A	A-	.	.	.	.
4AA/	.	.	.	.	.	.	.
=232	=232	=232	=232	=232	=232	=232	=232
1BB	.	.	.	1r	.	1r	.
.	.	2G/	.	.	.	.	.
0AA	-men	1A	me(n)	2r	.	2r	.
*	*	*	*ij	*	*ij	*	*ij
.	.	.	.	2e\	ſae-	2cc\	et
=233	=233	=233	=233	=233	=233	=233	=233
.	.	2r	.	2.e\	-cu-	2.cc\	in
.	.	1A	ſae-	.	.	.	.
.	.	.	.	4d\	-lo-	4b\	ſae-
1r	.	.	.	2c/	-ru(m)	2a/	-cu-
.	.	2G/	-cu-	1d	A-	2.b\	-la
=234	=234	=234	=234	=234	=234	=234	=234
*	*	*lig	*	*	*	*	*
0r	.	1F	-lo-	.	.	.	.
.	.	.	.	.	.	4a/	.
.	.	.	.	2c/	.	1a	ſae-
.	.	1E	.	1B	.	.	.
.	.	.	.	.	.	2g/	-cu-
*	*	*Xlig	*	*	*	*	*
=235	=235	=235	=235	=235	=235	=235	=235
1r	.	1F	-ru(m)	1A	-men	2a/	-lo-
.	.	.	.	.	.	1cc	-ru(m)
*	*	*	*	*	*Xij	*	*
2r	.	2C/	A-	2r	.	.	.
2E/	ſae-	2G/	.	2c/	ſae-	4b\	A-
.	.	.	.	.	.	4a\	.
=236	=236	=236	=236	=236	=236	=236	=236
2.E/	-cu-	2.G/	.	2.c/	-cu-	1g	-men
*	*	*	*	*	*	*	*Xij
4D/	-lo-	4F/	.	4B/	-lo-	.	.
2C/	-ru(m)	2E/	.	2A/	-ru(m)	1r	.
2.D/	.	1F	.	1B	A-	.	.
=237	=237	=237	=237	=237	=237	=237	=237
.	.	.	.	.	.	2r	.
4C/	.	.	.	.	.	.	.
!	!	!	!	!	!	!LO:SIC:v:t=custos cc	!
!	!	!	!	!	!	!LO:LB:g=original	!
4BB/	.	2.E/	.	1A	.	2cc\	ſae-
4AA/	.	.	.	.	.	.	.
1BB	.	.	.	.	.	2dd\	-cu-
.	.	4C/	.	.	.	.	.
.	.	2D/	.	2G/	.	2dd\	-lo-
=238	=238	=238	=238	=238	=238	=238	=238
!	!	!LO:SIC:v:t=custos A	!	!	!	!	!
1.AA	.	2E/	me(n)	2A/	-men	4cc\	-ru(m)
!	!	!LO:LB:g=original	!	!	!	!	!
*	*	*	*Xij	*	*	*	*
.	.	.	.	.	.	4b\	.
.	.	2.A/	A-	2.c/	.	4a/	.
.	.	.	.	.	.	4g/	.
.	.	.	.	.	.	2f/	A-
.	.	4G/	.	4B/	.	.	.
2C/	A-	2E/	.	4G/	.	1e	.
.	.	.	.	4A/	.	.	.
=239	=239	=239	=239	=239	=239	=239	=239
2BB/	.	2F/	.	1B	.	.	.
2GG/	.	2G/	.	.	.	1d	.
1AA	.	1E	.	1.A	.	.	.
!	!	!	!	!	!	!LO:TX:a:t=18	!
.	.	.	.	.	.	2c/	.
=240	=240	=240	=240	=240	=240	=240	=240
00D	-men	00D	-men	.	.	00d	-men
.	.	.	.	4G/	.	.	.
.	.	.	.	4F/	.	.	.
.	.	.	.	1B	.	.	.
=241	=241	=241	=241	=241	=241	=241	=241
.	.	.	.	0A	.	.	.
==	==	==	==	==	==	==	==
*-	*-	*-	*-	*-	*-	*-	*-
!!!system-decoration: [(s1,s2,s3,s4)]
!!!AIN: 1 alto 1 bass 1 soprn 1 tenor
!!!ENC: Filip Voros
!!!END: 2022-01-07
!!!ENC: Natalia Wrzos
!!!END: 2022-01-08
